static/assets/img/icons/theme/food/miso-soup.svg

<svg height="24" viewBox="0 0 24 24" width="24" xmlns="http://www.w3.org/2000/svg"><g fill="none" fill-rule="evenodd"><path d="m0 0h24v24h-24z" opacity="0"/><g fill="#000"><path d="m2 14h20c0 4.9705627-4.0294373 9-9 9h-2c-4.97056275 0-9-4.0294373-9-9z"/><path d="m16.7233675 1.41763641c.4612381.26629597.61927.85607888.352974 1.31731702-.0058345.01010562-.0118519.0201045-.0180493.02999171l-6.5203363 10.40243066c-.148193.2364246-.4569159.3131694-.69856301.1736544-.2416471-.139515-.3295456-.4452493-.19889243-.6918005l5.74860104-10.84799225c.2493812-.47059878.8330402-.64993111 1.303639-.40054997.0103107.00546388.0205214.01111445.030627.01694893zm5.1534923 2.79901917c.3563735.39579293.3244178 1.00554435-.0713751 1.3619179-.0086717.00780806-.0174845.01545808-.0264339.02294628l-9.4157361 7.87840474c-.2139992.179059-.5313276.156647-.7180351-.0507127-.1867076-.2073598-.1758269-.5252925.0246202-.7194026l8.8194584-8.54063822c.3825986-.37050302.9931081-.36069764 1.3636111.02190094.0081176.00838264.0160824.01691193.0238905.02558366z" opacity=".3"/></g></g></svg>

<svg width="24px" height="24px" viewBox="0 0 24 24" version="1.1" xmlns="http://www.w3.org/2000/svg" xmlns:xlink="http://www.w3.org/1999/xlink">
    <title>Icon For Miso-soup</title>
    <g stroke="none" stroke-width="1" fill="none" fill-rule="evenodd">
        <rect opacity="0" x="0" y="0" width="24" height="24"></rect>
        <path d="M2,14 L22,14 L22,14 C22,18.9705627 17.9705627,23 13,23 L11,23 C6.02943725,23 2,18.9705627 2,14 Z" fill="#000000"></path>
        <path d="M16.7233675,1.41763641 C17.1846056,1.68393238 17.3426375,2.27371529 17.0763415,2.73495343 C17.070507,2.74505905 17.0644896,2.75505793 17.0582922,2.76494514 L10.5379559,13.1673758 C10.3897629,13.4038004 10.08104,13.4805452 9.83939289,13.3410302 C9.59774579,13.2015152 9.50984729,12.8957809 9.64050046,12.6492297 L15.3891015,1.80123745 C15.6384827,1.33063867 16.2221417,1.15130634 16.6927405,1.40068748 C16.7030512,1.40615136 16.7132619,1.41180193 16.7233675,1.41763641 Z M21.8768598,4.21665558 C22.2332333,4.61244851 22.2012776,5.22219993 21.8054847,5.57857348 C21.796813,5.58638154 21.7880002,5.59403156 21.7790508,5.60151976 L12.3633147,13.4799245 C12.1493155,13.6589835 11.8319871,13.6365715 11.6452796,13.4292118 C11.458572,13.221852 11.4694527,12.9039193 11.6698998,12.7098092 L20.4893582,4.16917098 C20.8719568,3.79866796 21.4824663,3.80847334 21.8529693,4.19107192 C21.8610869,4.19945456 21.8690517,4.20798385 21.8768598,4.21665558 Z" fill="#000000" opacity="0.3"></path>
    </g>
</svg>
